picto/tracks-18-fr-large-framed.svg

<svg class="color-immutable" width="30" height="30" viewBox="0 0 30 30" fill="none" xmlns="http://www.w3.org/2000/svg"><path d="M30 0H0V30H30V0Z" fill="#2D327D"/><path d="M25.5 3C26.325 3 27 3.675 27 4.5V25.5C27 26.325 26.325 27 25.5 27H4.5C3.675 27 3 26.325 3 25.5V4.5C3 3.675 3.675 3 4.5 3H25.5ZM25.5 2.625H4.5C3.46613 2.625 2.625 3.46613 2.625 4.5V25.5C2.625 26.5339 3.46613 27.375 4.5 27.375H25.5C26.5339 27.375 27.375 26.5339 27.375 25.5V4.5C27.375 3.46613 26.5339 2.625 25.5 2.625Z" fill="white"/><path d="M11.8254 10.5079V24H9.13065V15.1683H8.17088H7.21118H6.27908H5.95605V13.2119C6.61433 13.1934 7.15118 13.1258 7.56645 13.0088C7.98173 12.8921 8.36153 12.7013 8.70615 12.4367C9.20453 12.0553 9.5397 11.4123 9.71205 10.5079H11.8254Z" fill="white"/><path d="M16.5411 16.7557C15.9136 16.5404 15.4321 16.1866 15.0969 15.6944C14.7615 15.2023 14.5939 14.6054 14.5939 13.904C14.5939 12.7352 15.0738 11.8031 16.0335 11.1078C16.8825 10.4926 17.8914 10.1849 19.0605 10.1849C20.3894 10.1849 21.4752 10.551 22.3182 11.2831C23.1178 11.9722 23.5179 12.8242 23.5179 13.8394C23.5179 14.547 23.3485 15.1531 23.0103 15.6574C22.6718 16.162 22.1919 16.528 21.5706 16.7557C22.0566 16.8973 22.4534 17.0787 22.7611 17.3002C23.6161 17.9216 24.0439 18.8291 24.0439 20.0226C24.0439 21.3946 23.5179 22.4866 22.4658 23.2987C21.5799 23.9816 20.4417 24.3231 19.0513 24.3231C17.5439 24.3231 16.3442 23.9479 15.4522 23.1972C14.5231 22.4159 14.0587 21.3916 14.0587 20.1241C14.0587 18.9367 14.4708 18.0169 15.2953 17.3647C15.6705 17.0756 16.0858 16.8726 16.5411 16.7557ZM19.0051 17.7708C18.3407 17.7708 17.7976 17.9755 17.3763 18.3845C16.9548 18.7937 16.7441 19.3182 16.7441 19.9579C16.7441 20.6163 16.9578 21.1516 17.3855 21.5637C17.813 21.976 18.3683 22.182 19.0512 22.182C19.8264 22.182 20.4078 21.9544 20.7954 21.4991C21.1707 21.0624 21.3584 20.5578 21.3584 19.9856C21.3584 19.3336 21.143 18.7983 20.7124 18.3799C20.3001 17.9738 19.731 17.7708 19.0051 17.7708ZM19.0236 12.2797C18.4329 12.2797 17.9561 12.4444 17.5932 12.7735C17.2301 13.1027 17.0487 13.5348 17.0487 14.0701C17.0487 14.63 17.2316 15.0776 17.5977 15.4129C17.9637 15.7483 18.4544 15.9158 19.0697 15.9158C19.6848 15.9158 20.1709 15.7497 20.5278 15.4174C20.8845 15.0852 21.063 14.633 21.063 14.0608C21.063 13.5011 20.8831 13.0642 20.5232 12.7504C20.1633 12.4366 19.6634 12.2797 19.0236 12.2797Z" fill="white"/><path d="M8.03591 6L7.28839 8.24865H6.73009L5.99329 6H6.50704L7.01306 7.6842L7.52681 6H8.03591Z" fill="white"/><path d="M8.87413 6.5229C9.11818 6.5229 9.3176 6.6039 9.47248 6.7659C9.62525 6.92588 9.70168 7.13918 9.70168 7.40573C9.70168 7.68158 9.62015 7.90148 9.4571 8.06558C9.30433 8.21835 9.10543 8.29478 8.86033 8.29478C8.59888 8.29478 8.39068 8.20965 8.23588 8.03948C8.0882 7.87748 8.0144 7.66725 8.0144 7.40888C8.0144 7.15455 8.08618 6.94793 8.22973 6.789C8.38865 6.61163 8.60345 6.5229 8.87413 6.5229ZM8.8511 6.87053C8.7332 6.87053 8.63938 6.91823 8.56963 7.01355C8.4989 7.10993 8.4635 7.2417 8.4635 7.40888C8.4635 7.5822 8.49838 7.71495 8.56813 7.80728C8.6399 7.90058 8.73785 7.94723 8.8619 7.94723C8.97778 7.94723 9.06958 7.9047 9.13723 7.81958C9.2141 7.72523 9.25258 7.58835 9.25258 7.40888C9.25258 7.24073 9.21875 7.11 9.15103 7.0167C9.0803 6.91928 8.98033 6.87053 8.8511 6.87053Z" fill="white"/><path d="M10.4491 6V6.40147H10.0031V6H10.4491ZM10.4491 6.57217V8.24873H10.0031V6.57217H10.4491Z" fill="white"/><path d="M12.3209 7.72575C12.2973 7.8201 12.2547 7.90875 12.1932 7.99185C12.0456 8.19382 11.8333 8.29485 11.5565 8.29485C11.3063 8.29485 11.1058 8.21587 10.9551 8.058C10.8813 7.98112 10.8249 7.88827 10.7859 7.7796C10.7438 7.66372 10.7228 7.54275 10.7228 7.4166C10.7228 7.17255 10.7931 6.9675 10.9335 6.80137C11.0904 6.61575 11.2935 6.52297 11.5426 6.52297C11.7436 6.52297 11.9148 6.585 12.0564 6.70905C12.1579 6.79822 12.2317 6.90825 12.2778 7.03897C12.324 7.1697 12.3471 7.33402 12.3471 7.53195H11.1766C11.1807 7.614 11.1936 7.68217 11.2151 7.73655C11.2756 7.88317 11.3904 7.95652 11.5596 7.95652C11.6427 7.95652 11.7104 7.9383 11.7627 7.90192C11.8149 7.86555 11.858 7.80682 11.8919 7.72582H12.3209V7.72575ZM11.8918 7.23202C11.8836 7.15102 11.8652 7.08382 11.8365 7.0305C11.8077 6.97822 11.767 6.93667 11.7142 6.90592C11.6614 6.87517 11.6037 6.8598 11.5412 6.8598C11.4417 6.8598 11.3597 6.8931 11.2951 6.95977C11.2305 7.02645 11.1921 7.1172 11.1798 7.23202H11.8918Z" fill="white"/></svg>

<svg class="color-immutable" width="30" height="30" viewBox="0 0 30 30" fill="none" xmlns="http://www.w3.org/2000/svg"><g clip-path="url(#a)"><path d="M30 0H0v30h30V0Z" fill="#2D327D"/><path d="M25.5 3c.825 0 1.5.675 1.5 1.5v21c0 .825-.675 1.5-1.5 1.5h-21c-.825 0-1.5-.675-1.5-1.5v-21C3 3.675 3.675 3 4.5 3h21Zm0-.375h-21A1.877 1.877 0 0 0 2.625 4.5v21c0 1.034.841 1.875 1.875 1.875h21a1.877 1.877 0 0 0 1.875-1.875v-21A1.877 1.877 0 0 0 25.5 2.625Z" fill="#fff"/><path d="M11.825 10.508V24H9.131v-8.832H5.956v-1.956c.658-.019 1.195-.086 1.61-.203a3.338 3.338 0 0 0 1.14-.572c.499-.382.834-1.025 1.006-1.93h2.113ZM16.541 16.756c-.627-.216-1.109-.57-1.444-1.062-.335-.492-.503-1.089-.503-1.79 0-1.169.48-2.1 1.44-2.796.849-.615 1.857-.923 3.027-.923 1.328 0 2.414.366 3.257 1.098.8.69 1.2 1.541 1.2 2.556 0 .708-.17 1.314-.508 1.818-.338.505-.818.871-1.44 1.099.487.141.883.323 1.191.544.855.622 1.283 1.53 1.283 2.723 0 1.372-.526 2.464-1.578 3.276-.886.683-2.024 1.024-3.415 1.024-1.507 0-2.707-.375-3.599-1.126-.929-.781-1.393-1.805-1.393-3.073 0-1.187.412-2.107 1.236-2.76.376-.288.79-.491 1.246-.608Zm2.464 1.015c-.664 0-1.207.204-1.629.613-.421.41-.632.934-.632 1.574 0 .658.214 1.194.642 1.606.427.412.982.618 1.665.618.775 0 1.357-.228 1.744-.683.376-.437.563-.941.563-1.513 0-.652-.215-1.188-.646-1.606-.412-.406-.981-.61-1.707-.61Zm.019-5.491c-.591 0-1.068.164-1.43.494-.364.329-.545.76-.545 1.296 0 .56.183 1.008.549 1.343.366.335.856.503 1.472.503.615 0 1.1-.166 1.458-.499.357-.332.535-.784.535-1.356 0-.56-.18-.997-.54-1.31-.36-.314-.86-.471-1.5-.471ZM8.036 6l-.748 2.249H6.73L5.993 6h.514l.506 1.684L7.527 6h.509ZM8.874 6.523c.244 0 .444.08.598.243.153.16.23.373.23.64 0 .276-.082.495-.245.66a.807.807 0 0 1-.597.229c-.261 0-.47-.085-.624-.256-.148-.162-.222-.372-.222-.63 0-.254.072-.461.216-.62.159-.177.373-.266.644-.266Zm-.023.348a.331.331 0 0 0-.281.143.656.656 0 0 0-.107.395c0 .173.035.306.105.398a.35.35 0 0 0 .294.14.333.333 0 0 0 .275-.127c.077-.095.116-.232.116-.411 0-.168-.034-.299-.102-.392a.349.349 0 0 0-.3-.146ZM10.45 6v.401h-.447V6h.446Zm0 .572V8.25h-.447V6.572h.446ZM12.32 7.726a.751.751 0 0 1-.127.266c-.147.202-.36.303-.636.303-.25 0-.451-.08-.602-.237a.773.773 0 0 1-.17-.278 1.055 1.055 0 0 1-.062-.363c0-.244.07-.45.21-.616a.76.76 0 0 1 .61-.278.753.753 0 0 1 .735.516c.046.13.07.295.07.493h-1.171a.65.65 0 0 0 .038.205c.06.146.175.22.345.22.083 0 .15-.019.203-.055a.391.391 0 0 0 .129-.176h.429Zm-.428-.494a.54.54 0 0 0-.056-.202.338.338 0 0 0-.295-.17c-.1 0-.181.033-.246.1a.446.446 0 0 0-.115.272h.712Z" fill="#fff"/></g><defs><clipPath id="a"><path fill="#fff" d="M0 0h30v30H0z"/></clipPath></defs></svg>
